Numix-GalliumOS/48/mimetypes/application-word.svg

<?xml version="1.0" encoding="UTF-8" standalone="no"?>
<svg
   xmlns:dc="http://purl.org/dc/elements/1.1/"
   xmlns:cc="http://creativecommons.org/ns#"
   xmlns:rdf="http://www.w3.org/1999/02/22-rdf-syntax-ns#"
   xmlns:svg="http://www.w3.org/2000/svg"
   xmlns="http://www.w3.org/2000/svg"
   xmlns:sodipodi="http://sodipodi.sourceforge.net/DTD/sodipodi-0.dtd"
   xmlns:inkscape="http://www.inkscape.org/namespaces/inkscape"
   width="48"
   viewBox="0 0 48 48"
   height="48"
   id="svg2"
   version="1.1"
   inkscape:version="0.48.5 r10040"
   sodipodi:docname="application-word.svg">
  <metadata
     id="metadata34">
    <rdf:RDF>
      <cc:Work
         rdf:about="">
        <dc:format>image/svg+xml</dc:format>
        <dc:type
           rdf:resource="http://purl.org/dc/dcmitype/StillImage" />
      </cc:Work>
    </rdf:RDF>
  </metadata>
  <defs
     id="defs32" />
  <sodipodi:namedview
     pagecolor="#ffffff"
     bordercolor="#666666"
     borderopacity="1"
     objecttolerance="10"
     gridtolerance="10"
     guidetolerance="10"
     inkscape:pageopacity="0"
     inkscape:pageshadow="2"
     inkscape:window-width="1280"
     inkscape:window-height="970"
     id="namedview30"
     showgrid="true"
     inkscape:zoom="13.906433"
     inkscape:cx="30.041485"
     inkscape:cy="25.445047"
     inkscape:window-x="0"
     inkscape:window-y="0"
     inkscape:window-maximized="1"
     inkscape:current-layer="svg2">
    <inkscape:grid
       type="xygrid"
       id="grid3119" />
  </sodipodi:namedview>
  <path
     style="fill:#3468ce"
     d="M 8,1 C 6.9714285,1 6,1.9714285 6,3 l 0,42 c 0,0.971429 1.0285714,2 2,2 l 32,0 c 0.971429,0 2,-1.028571 2,-2 L 42,14 29,1 z"
     id="path4" />
  <path
     style="fill-opacity:.196"
     d="M 29,12 29.0625,12.0625 29.21875,12 29,12 z m 2,2 11,11 0,-11 -11,0 z"
     id="path6" />
  <path
     style="fill:#fff;fill-opacity:.392"
     d="m 29,1 13,13 -11,0 c -0.971429,0 -2,-1.028571 -2,-2 L 29,1 z"
     id="path8" />
  <rect
     id="rect12"
     style="fill:#f9f9f9;fill-opacity:1"
     ry="0.60100001"
     height="7"
     rx="0.579"
     y="18"
     x="15"
     width="8" />
  <path
     style="fill:#f9f9f9;fill-opacity:1;stroke:#f9f9f9;stroke-width:1;stroke-linecap:round;stroke-linejoin:round;stroke-opacity:1;stroke-dashoffset:0.774"
     inkscape:connector-curvature="0"
     id="path16"
     d="m 25.500002,18.5 6.999999,0"
     sodipodi:nodetypes="cc" />
  <path
     style="fill:#f9f9f9;fill-opacity:1;stroke:#f9f9f9;stroke-width:1;stroke-linecap:round;stroke-linejoin:round;stroke-opacity:1;stroke-dashoffset:0.774"
     inkscape:connector-curvature="0"
     id="path22-8"
     d="m 15.500002,27.5 16.999999,0"
     sodipodi:nodetypes="cc" />
  <path
     style="fill:#f9f9f9;fill-opacity:1;stroke:#f9f9f9;stroke-width:1;stroke-linecap:round;stroke-linejoin:round;stroke-opacity:1;stroke-dashoffset:0.774"
     inkscape:connector-curvature="0"
     id="path24-7"
     d="m 15.500002,30.5 16.999999,0"
     sodipodi:nodetypes="cc" />
  <path
     style="fill:#f9f9f9;fill-opacity:1;stroke:#f9f9f9;stroke-width:1;stroke-linecap:round;stroke-linejoin:round;stroke-opacity:1;stroke-dashoffset:0.774"
     inkscape:connector-curvature="0"
     id="path26-4"
     d="m 15.500002,33.5 16.999999,0"
     sodipodi:nodetypes="cc" />
  <path
     style="fill:#f9f9f9;fill-opacity:1;stroke:#f9f9f9;stroke-width:1;stroke-linecap:round;stroke-linejoin:round;stroke-opacity:1;stroke-dashoffset:0.774"
     inkscape:connector-curvature="0"
     id="path16-1"
     d="m 25.500002,21.5 6.999999,0"
     sodipodi:nodetypes="cc" />
  <path
     style="fill:#f9f9f9;fill-opacity:1;stroke:#f9f9f9;stroke-width:1;stroke-linecap:round;stroke-linejoin:round;stroke-opacity:1;stroke-dashoffset:0.774"
     inkscape:connector-curvature="0"
     id="path16-1-8"
     d="m 25.500002,24.5 6.999999,0"
     sodipodi:nodetypes="cc" />
  <path
     style="fill:#f9f9f9;fill-opacity:1;stroke:#f9f9f9;stroke-width:1;stroke-linecap:round;stroke-linejoin:round;stroke-opacity:1;stroke-dashoffset:0.774"
     inkscape:connector-curvature="0"
     id="path26-4-5"
     d="M 15.500001,36.5 32.5,36.5"
     sodipodi:nodetypes="cc" />
</svg>

<svg xmlns="http://www.w3.org/2000/svg" viewBox="0 0 48 48">
 <path d="m 8 1 c -1.029 0 -2 0.971 -2 2 l 0 42 c 0 0.971 1.029 2 2 2 l 32 0 c 0.971 0 2 -1.029 2 -2 l 0 -31 -13 -13 z" style="fill:#3468ce"/>
 <path d="m 29 12 0.063 0.063 0.156 -0.063 -0.219 0 z m 2 2 11 11 0 -11 -11 0 z" style="fill-opacity:0.196"/>
 <path d="m 29 1 13 13 -11 0 c -0.971 0 -2 -1.029 -2 -2 l 0 -11 z" style="fill:#fff;fill-opacity:0.392"/>
 <rect ry="0.601" height="7" rx="0.579" y="18" x="15" width="8" style="fill:#f9f9f9;fill-opacity:1"/>
 <path d="m 25.5 18.5 7 0" style="stroke-opacity:1;fill:#f9f9f9;fill-opacity:1;stroke:#f9f9f9;stroke-linecap:round;stroke-linejoin:round;stroke-width:1;stroke-dashoffset:0.774"/>
 <path d="m 15.5 27.5 17 0" style="stroke-opacity:1;fill:#f9f9f9;fill-opacity:1;stroke:#f9f9f9;stroke-linecap:round;stroke-linejoin:round;stroke-width:1;stroke-dashoffset:0.774"/>
 <path d="m 15.5 30.5 17 0" style="stroke-opacity:1;fill:#f9f9f9;fill-opacity:1;stroke:#f9f9f9;stroke-linecap:round;stroke-linejoin:round;stroke-width:1;stroke-dashoffset:0.774"/>
 <path d="m 15.5 33.5 17 0" style="stroke-opacity:1;fill:#f9f9f9;fill-opacity:1;stroke:#f9f9f9;stroke-linecap:round;stroke-linejoin:round;stroke-width:1;stroke-dashoffset:0.774"/>
 <path d="m 25.5 21.5 7 0" style="stroke-opacity:1;fill:#f9f9f9;fill-opacity:1;stroke:#f9f9f9;stroke-linecap:round;stroke-linejoin:round;stroke-width:1;stroke-dashoffset:0.774"/>
 <path d="m 25.5 24.5 7 0" style="stroke-opacity:1;fill:#f9f9f9;fill-opacity:1;stroke:#f9f9f9;stroke-linecap:round;stroke-linejoin:round;stroke-width:1;stroke-dashoffset:0.774"/>
 <path d="m 15.5 36.5 17 0" style="stroke-opacity:1;fill:#f9f9f9;fill-opacity:1;stroke:#f9f9f9;stroke-linecap:round;stroke-linejoin:round;stroke-width:1;stroke-dashoffset:0.774"/>
</svg>
